X:40 
T:The Dannish Waltz 
R:shottish
S:https://lesters-tune-a-day.blogspot.com/2022/08/tune-534-dannish-waltz.html 2022-08-18
M:4/4 
L:1/8 
K:Dmaj 
"^A"
|: (3ABc | d2d2 c2c2 | B>cd>B A3F | G>AB>G F>GA>F :|[1,3 E2E2 E2 :|[2,4 E2E2 D2 :|
"^B"
|: A2 | (3FAF D2 (3FAF D2 | F>A d>c B2A2 |[1,3 (3FAF D2 (3FAF D2 | E>FG>F E2 :|[2,4 G>AB>G F>GA>F | E2E2 D2 :| 
